!!!COM: Bach, Johann Sebastian
!!!CDT: 1685/3//-1750/7/28/
!!!OTL@@DE: Ich dank' dir, lieber Herre
!!!OTL@EN:  I thank Thee, dear Lord
!!!AGN: 4-Part Chorale
!!!SCT: BH 002
!!!SCT: BWV 347
**harm	**root	**kern	**kern	**kern	**kern
*	*Iorgan	*Iorgan	*Iorgan	*Iorgan	*Iorgan
!	!	!bass	!tenor	!alto	!sprno
*	*	*clefF4	*clefF4	*clefG2	*clefG2
*k[b-]	*k[b-]	*k[b-]	*k[b-]	*k[b-]	*k[b-]
*F:	*F:	*F:	*F:	*F:	*F:
*met(c)	*met(c)	*met(c)	*met(c)	*met(c)	*met(c)
*M4/4	*M4/4	*M4/4	*M4/4	*M4/4	*M4/4
*MM60	*MM60	*MM60	*MM60	*MM60	*MM60
*>[A,A,B]	*>[A,A,B]	*>[A,A,B]	*>[A,A,B]	*>[A,A,B]	*>[A,A,B]
*>A	*>A	*>A	*>A	*>A	*>A
I	4AA	8F	4A	4c	4f
.	.	8E	.	.	.
=1	=1	=1	=1	=1	=1
vi	4FF#	4D	4A	4d	4f
Ib	4AA	4AA	8A	4c	4f
.	.	.	8G	.	.
IV	4DD	4BB-	8F	4d	4f
.	.	.	8E	.	.
Vb/V	4BB	4BB	4D	4d	4g
=2	=2	=2	=2	=2	=2
v	4EE	4C	4.G	4c	4e-
V7/V	4BB	4GG	.	4B	4d
.	.	.	8F	.	.
V;	4EE;	4CC;	4Ey;	4G;	4c;
V	4EE	4C	4c	4ey	4g
=3	=3	=3	=3	=3	=3
I	4AA	4F	4c	4f	4a
V/V	4BB	4G	4B	8e	4g
.	.	.	.	8d	.
Ib	4AA	4A	2A	[2c	4f
V7c/VI	8CC#	8G	.	.	8e
vi7b	8FF#	8F	.	.	8d
=4	=4	=4	=4	=4	=4
V	4EE	4G	4.G	4c]	4e
V7/V	4BB	4GG	.	4B	4d
.	.	.	8F	.	.
V;	4EE;	4C;	4E;	4G;	4c;
=:|!	=:|!	=:|!	=:|!	=:|!	=:|!
*>B	*>B	*>B	*>B	*>B	*>B
iii	4CC#	4AA	4E	8a	4cc
.	.	.	.	8g	.
=5	=5	=5	=5	=5	=5
IVb	4DD	8D	8F	4f	4b-
.	.	8E	8G	.	.
I	4AA	4F	8A	4f	4a
.	.	.	8B-	.	.
V	4EE	4C	4c	4e	4g
Ib	8AA	8AA	4c	8f	4f
V7/IV	8AA	8FF	.	8e-	.
=6	=6	=6	=6	=6	=6
IV	4DD	4BB-	4B-	8d	8f
.	.	.	.	8ey	8g
Ib	4AA	8AA	4c	4f	4a
.	.	8BB-	.	.	.
V;	4EE;	4C;	4c;	4e;	4g;
viio/II	4AA#	4AA	4c	4f#	4a
!!linebreak: 2
=7	=7	=7	=7	=7	=7
ii	8BB	4GG	8d	8g	4b-
ii7	8BB	.	4G	8f	.
viiD7b/II	4AA#	4AA	.	4e-	4a
.	.	.	8F#	.	.
iib	8BB	8BB-	4G	8d	4g
v	8EE	8E-	.	8c	.
V/II	4FF#	4D	4A	4d	4f#
=8	=8	=8	=8	=8	=8
ii;	2.BB;	2.GG;	2.B-;	2.d;	2.g;
iii	4CC#	4AA	4E	8c	4c
.	.	.	.	8B-	.
=9	=9	=9	=9	=9	=9
vi	4FF#	4D	4F	4A	4f
V7	8EE	8C	8E	4B-	4g
iib	8BB	8BB-	8D	.	.
iii	4CC#	4AA	8C	4c	4a
.	.	.	8c	.	.
ii	8BB	4GG	4B-	8d	4b-
viiob	8GG#	.	.	8e	.
=10	=10	=10	=10	=10	=10
I	4AA	8FF	8A	2f	4cc
.	.	8GG	8B-	.	.
I9b	8AA	8AA	8c	.	8b-
IV7	8DD	8BB-	8d	.	8a
V;	4EE;	4C;	4e;	4c;	4g;
ii	4BB	4GG	4d	4g	4b-
=11	=11	=11	=11	=11	=11
vi	8FF#	8D	8d	8f	4a
iiic	8CC#	8E	8c	8e	.
ii7d	4BB	4F	8B-	4d	4g
.	.	.	8A	.	.
Vb	4EE	8E	4G	4c	4.cc
.	.	8C	.	.	.
vi7b	8FF#	[4F	8A	8d	.
viioc	8GG#	.	8B-	8e	8b-
=12	=12	=12	=12	=12	=12
I	4AA	8F]	4.c	2f	8a
.	.	8E	.	.	8g
ii7c	4BB	4D	.	.	8f
.	.	.	8B-	.	8g
Ic	8AA	8C	8A	4f	4a
IV7	8DD	8BB-	8d	.	.
V	4EE	4C	8G	4e	4g
.	.	.	16c	.	.
.	.	.	16B-	.	.
=13	=13	=13	=13	=13	=13
I;	2.AA;	2.FF;	2.A;	2.c;	2.f;
==	==	==	==	==	==
*-	*-	*-	*-	*-	*-
!!chor2scor: -l 2 -s 0.6 -o %b.pmx
!!!YEC: Copyright 2001 by Craig Stuart Sapp
!!!license: GNU General Public License (http://www.gnu.org/copyleft/gpl.html)
!!!SMA: 371 Bach Chorales, edited by Ludwig Erk, C.F. Peters
!!!PDT: 1850, 1865
!!!ONB: Harmony and Root analysis done manually by Craig Sapp (not proofed yet)
